shader_type spatial;

void vertex() {
	// Called for every vertex the material is visible on.
}

void fragment() {
	// Called for every pixel the material is visible on.
}


//CGLF - Test 2
#include "res://addons/custom_global_light_function/src/clf_include_files/test2.gdshaderinc"
//CGLF