shader_type spatial;

void vertex() {
	// Called for every vertex the material is visible on.
}

void fragment() {
	// Called for every pixel the material is visible on.
}

//CGLF - 1
#include "res://addons/custom_global_light_function/src/clf_include_files/1.gdshaderinc"
//CGLF