shader_type spatial;

void vertex() {
	// Called for every vertex the material is visible on.
}

void fragment() {
	// Called for every pixel the material is visible on.
}

//CGLF - Custom Global Light Function
#include "res://addons/custom_global_light_function/cglf.gdshaderinc"
//CGLF